icons/2_Variations/Mollie bg.var.svg

<svg xmlns="http://www.w3.org/2000/svg" width="1024" height="1024" fill="none">
   <g clip-path="url(#a)">
      <path fill="#A0A5AF" d="M512 1024c282.77 0 512-229.23 512-512S794.77 0 512 0 0 229.23 0 512s229.23 512 512 512Z"/>
      <path fill="#fff" d="M465 452a60.652 60.652 0 0 0-56.033 37.44 60.655 60.655 0 0 0 13.147 66.096 60.648 60.648 0 0 0 66.096 13.147 60.647 60.647 0 0 0 37.44-56.033A60.718 60.718 0 0 0 465 452Zm0 92.61a31.9 31.9 0 1 1 31.9-31.9A31.937 31.937 0 0 1 465 544.6v.01ZM666.79 431a18.91 18.91 0 1 0 0-37.82 18.91 18.91 0 0 0 0 37.82ZM341.2 452c-1.58-.13-3.09-.19-4.67-.19a52.672 52.672 0 0 0-38.46 16.58 52.593 52.593 0 0 0-57.69-12.89 52.593 52.593 0 0 0-33.23 48.89v66.39h28.37v-65.52c0-12 9.9-23.14 21.56-24.33.82-.06 1.64-.13 2.4-.13a24.002 24.002 0 0 1 23.9 23.83v66.2h29v-65.7c0-12 9.84-23.07 21.56-24.27.82-.06 1.64-.13 2.4-.13a24 24 0 0 1 24 23.7v66.39h29v-65.56a53.836 53.836 0 0 0-13.81-36A51.725 51.725 0 0 0 341.2 452Zm229.12-56h-29v174.95h29V396Zm55.48 0h-29v174.95h29V396Zm55.48 58.88h-29v116h29v-116Zm135.56 55A57.993 57.993 0 0 0 800 469a56.714 56.714 0 0 0-40.6-17.15h-.76a60.68 60.68 0 1 0 .82 121.36h.06a61.009 61.009 0 0 0 52.21-29.76l1.39-2.33-24-11.79-1.2 2a32.61 32.61 0 0 1-59.33-8.07h88.21l.04-13.38Zm-58.57-31.71a31.119 31.119 0 0 1 29.26 21.06h-58.45a31.006 31.006 0 0 1 29.19-21.02v-.04Z"/>
   </g>
   <defs>
      <clipPath id="a">
         <path fill="#fff" d="M0 0h1024v1024H0z"/>
      </clipPath>
   </defs>
</svg>

<svg width="1024" height="1024" viewBox="0 0 1024 1024" fill="none" xmlns="http://www.w3.org/2000/svg">
<g clip-path="url(#clip0_3_173)">
<path d="M512 1024C794.77 1024 1024 794.77 1024 512C1024 229.23 794.77 0 512 0C229.23 0 0 229.23 0 512C0 794.77 229.23 1024 512 1024Z" fill="#A0A5AF"/>
<path d="M465 452C453.005 452 441.279 455.557 431.305 462.221C421.331 468.885 413.558 478.358 408.967 489.44C404.377 500.522 403.176 512.717 405.516 524.482C407.856 536.247 413.632 547.054 422.114 555.536C430.596 564.018 441.403 569.794 453.168 572.134C464.933 574.475 477.128 573.273 488.21 568.683C499.292 564.093 508.765 556.319 515.429 546.345C522.093 536.371 525.65 524.645 525.65 512.65C525.632 496.57 519.236 481.154 507.866 469.784C496.496 458.414 481.08 452.018 465 452ZM465 544.61C458.691 544.61 452.524 542.739 447.278 539.234C442.032 535.728 437.943 530.746 435.529 524.917C433.114 519.088 432.482 512.674 433.713 506.486C434.944 500.298 437.982 494.614 442.444 490.153C446.905 485.692 452.589 482.653 458.777 481.423C464.965 480.192 471.379 480.823 477.208 483.238C483.037 485.652 488.019 489.741 491.524 494.987C495.03 500.233 496.9 506.4 496.9 512.71C496.887 521.165 493.522 529.27 487.542 535.248C481.562 541.226 473.456 544.589 465 544.6V544.61ZM666.79 431C670.53 431 674.186 429.891 677.296 427.813C680.406 425.735 682.83 422.782 684.261 419.326C685.692 415.871 686.067 412.069 685.337 408.401C684.607 404.732 682.806 401.363 680.162 398.718C677.517 396.074 674.148 394.273 670.48 393.543C666.811 392.813 663.009 393.188 659.554 394.619C656.099 396.05 653.145 398.474 651.067 401.584C648.989 404.694 647.88 408.35 647.88 412.09C647.88 417.105 649.873 421.915 653.419 425.461C656.965 429.007 661.775 431 666.79 431ZM341.2 452C339.62 451.87 338.11 451.81 336.53 451.81C329.327 451.797 322.197 453.262 315.582 456.114C308.967 458.966 303.007 463.144 298.07 468.39C290.853 460.707 281.494 455.371 271.207 453.072C260.92 450.774 250.18 451.62 240.38 455.5C230.579 459.381 222.171 466.117 216.246 474.834C210.321 483.552 207.152 493.849 207.15 504.39V570.78H235.52V505.26C235.52 493.26 245.42 482.12 257.08 480.93C257.9 480.87 258.72 480.8 259.48 480.8C265.799 480.826 271.852 483.343 276.327 487.804C280.801 492.265 283.336 498.311 283.38 504.63V570.83H312.38V505.13C312.38 493.13 322.22 482.06 333.94 480.86C334.76 480.8 335.58 480.73 336.34 480.73C342.654 480.729 348.713 483.217 353.206 487.653C357.698 492.089 360.261 498.117 360.34 504.43V570.82H389.34V505.26C389.339 491.966 384.42 479.143 375.53 469.26C366.728 459.312 354.435 453.132 341.2 452ZM570.32 396H541.32V570.95H570.32V396ZM625.8 396H596.8V570.95H625.8V396ZM681.28 454.88H652.28V570.88H681.28V454.88ZM816.84 509.88C816.845 494.564 810.791 479.868 800 469C794.719 463.577 788.407 459.266 781.434 456.321C774.461 453.375 766.97 451.855 759.4 451.85H758.64C742.547 451.958 727.156 458.456 715.853 469.912C704.55 481.369 698.262 496.846 698.37 512.94C698.479 529.033 704.976 544.424 716.433 555.727C727.89 567.03 743.367 573.318 759.46 573.21H759.52C770.052 573.178 780.395 570.42 789.545 565.205C798.694 559.99 806.337 552.495 811.73 543.45L813.12 541.12L789.12 529.33L787.92 531.33C784.632 536.781 779.819 541.151 774.076 543.9C768.333 546.648 761.911 547.656 755.603 546.798C749.294 545.94 743.374 543.253 738.574 539.071C733.774 534.888 730.304 529.392 728.59 523.26H816.8L816.84 509.88ZM758.27 478.17C764.73 478.209 771.018 480.258 776.26 484.031C781.503 487.805 785.442 493.117 787.53 499.23H729.08C731.156 493.126 735.083 487.821 740.315 484.053C745.547 480.285 751.823 478.243 758.27 478.21V478.17Z" fill="white"/>
</g>
<defs>
<clipPath id="clip0_3_173">
<rect width="1024" height="1024" fill="white"/>
</clipPath>
</defs>
</svg>
